app/images/pinterest.svg

<?xml version="1.0" encoding="UTF-8"?>
<svg xmlns="http://www.w3.org/2000/svg" xmlns:xlink="http://www.w3.org/1999/xlink" width="px" height="20px" viewBox="0 0 15 20" version="1.1">
<g id="surface1">
<path style=" stroke:none;fill-rule:nonzero;fill:rgb(0%,0%,0%);fill-opacity:1;" d="M 7.96875 0.253906 C 3.960938 0.253906 0 2.925781 0 7.25 C 0 10 1.546875 11.5625 2.484375 11.5625 C 2.871094 11.5625 3.09375 10.484375 3.09375 10.179688 C 3.09375 9.816406 2.167969 9.042969 2.167969 7.53125 C 2.167969 4.390625 4.558594 2.164062 7.652344 2.164062 C 10.3125 2.164062 12.28125 3.675781 12.28125 6.453125 C 12.28125 8.527344 11.449219 12.417969 8.753906 12.417969 C 7.78125 12.417969 6.949219 11.714844 6.949219 10.707031 C 6.949219 9.230469 7.980469 7.800781 7.980469 6.277344 C 7.980469 3.691406 4.3125 4.160156 4.3125 7.285156 C 4.3125 7.941406 4.394531 8.667969 4.6875 9.265625 C 4.148438 11.585938 3.046875 15.042969 3.046875 17.433594 C 3.046875 18.171875 3.152344 18.898438 3.222656 19.636719 C 3.355469 19.785156 3.289062 19.769531 3.492188 19.695312 C 5.460938 17 5.390625 16.472656 6.28125 12.945312 C 6.761719 13.859375 8.003906 14.351562 8.988281 14.351562 C 13.136719 14.351562 15 10.308594 15 6.664062 C 15 2.785156 11.648438 0.253906 7.96875 0.253906 Z M 7.96875 0.253906 "/>
</g>
</svg>

<svg xmlns="http://www.w3.org/2000/svg" width="px" height="20" viewBox="0 0 15 20"><path d="M7.969.254C3.96.254 0 2.926 0 7.25c0 2.75 1.547 4.313 2.484 4.313.387 0 .61-1.079.61-1.383 0-.364-.926-1.137-.926-2.649 0-3.14 2.39-5.367 5.484-5.367 2.66 0 4.63 1.512 4.63 4.29 0 2.073-.833 5.964-3.528 5.964-.973 0-1.805-.703-1.805-1.711 0-1.477 1.031-2.906 1.031-4.43 0-2.586-3.668-2.117-3.668 1.008 0 .656.083 1.383.375 1.98-.539 2.32-1.64 5.778-1.64 8.169 0 .738.105 1.464.176 2.203.132.148.066.133.27.058C5.46 17 5.39 16.473 6.28 12.945c.48.914 1.723 1.407 2.707 1.407 4.149 0 6.012-4.043 6.012-7.688 0-3.879-3.352-6.41-7.031-6.41zm0 0" id="surface1"/></svg>
